logos/aws-opsworks.svg

<?xml version="1.0" encoding="UTF-8"?>
<svg width="256px" height="256px" viewBox="0 0 256 256" version="1.1" xmlns="http://www.w3.org/2000/svg" xmlns:xlink="http://www.w3.org/1999/xlink" preserveAspectRatio="xMidYMid">
    <title>AWS OpsWorks</title>
    <defs>
        <linearGradient x1="0%" y1="100%" x2="100%" y2="0%" id="linearGradient-1">
            <stop stop-color="#B0084D" offset="0%"></stop>
            <stop stop-color="#FF4F8B" offset="100%"></stop>
        </linearGradient>
    </defs>
    <g>
        <rect fill="url(#linearGradient-1)" x="0" y="0" width="256" height="256"></rect>
        <path d="M128,76.16 C135.4112,76.16 141.44,82.1888 141.44,89.6 C141.44,97.0112 135.4112,103.04 128,103.04 C120.5888,103.04 114.56,97.0112 114.56,89.6 C114.56,82.1888 120.5888,76.16 128,76.16 L128,76.16 Z M128,109.44 C138.9408,109.44 147.84,100.5408 147.84,89.6 C147.84,78.6592 138.9408,69.76 128,69.76 C117.0592,69.76 108.16,78.6592 108.16,89.6 C108.16,100.5408 117.0592,109.44 128,109.44 L128,109.44 Z M89.6,84.72 L93.1296,84.9216 C94.5728,84.9984 96.0832,83.9616 96.432,82.4352 C97.2416,78.8608 98.6464,75.4688 100.6144,72.3552 C101.4496,71.0304 101.2064,69.2992 100.0416,68.2592 L97.3984,65.8976 L104.3008,58.9984 L106.656,61.6384 C107.6928,62.8064 109.4304,63.0432 110.7488,62.2144 C113.856,60.256 117.248,58.8512 120.832,58.0416 C122.3552,57.696 123.408,56.3008 123.3184,54.7392 L123.12,51.2 L132.88,51.2 L132.6816,54.7456 C132.592,56.304 133.6448,57.7024 135.168,58.048 C138.7424,58.8544 142.1344,60.2624 145.2416,62.224 C146.5632,63.0528 148.2976,62.8128 149.3376,61.6448 L151.6992,58.9984 L158.6016,65.8976 L155.9648,68.2528 C154.8,69.2928 154.5568,71.0272 155.392,72.3488 C157.3568,75.4592 158.7616,78.8512 159.5712,82.432 C159.92,83.9584 161.3984,84.9984 162.8736,84.9216 L166.4,84.72 L166.4,94.48 L162.8768,94.2784 C161.3984,94.2016 159.9232,95.2416 159.5744,96.7712 C158.768,100.352 157.3632,103.7472 155.3984,106.8608 C154.5632,108.1856 154.8064,109.9168 155.9712,110.9568 L158.6016,113.3024 L151.7024,120.2048 L149.3696,117.5872 C148.3264,116.416 146.5888,116.1792 145.2704,117.0112 C142.1568,118.9792 138.7552,120.3872 135.168,121.1968 C133.6448,121.5424 132.592,122.9408 132.6816,124.5024 L132.88,128 L123.12,128 L123.3184,124.496 C123.408,122.9376 122.3552,121.5392 120.832,121.1936 C117.2512,120.384 113.8528,118.9728 110.736,117.0048 C109.4144,116.1696 107.68,116.4064 106.64,117.5808 L104.2976,120.2048 L97.3984,113.3024 L100.0224,110.9632 C101.1872,109.9232 101.4304,108.1888 100.5984,106.8672 C98.6304,103.76 97.2256,100.3616 96.4192,96.7712 C96.0736,95.2416 94.5984,94.1952 93.1168,94.2784 L89.6,94.48 L89.6,84.72 Z M86.5824,101.0624 L90.8672,100.8192 C91.6096,103.2832 92.592,105.6608 93.808,107.9264 L90.6048,110.7808 C89.9488,111.3696 89.5616,112.1984 89.536,113.0816 C89.5136,113.9616 89.8528,114.8128 90.4736,115.4336 L102.1696,127.1264 C102.7904,127.7504 103.6384,128.1152 104.5216,128.0608 C105.4016,128.0352 106.2336,127.6512 106.8192,126.992 L109.6736,123.792 C111.9424,125.0112 114.32,125.9968 116.7808,126.7424 L116.5376,131.0176 C116.4864,131.8976 116.8,132.7584 117.4048,133.3984 C118.0096,134.0384 118.8512,134.4 119.7312,134.4 L136.2688,134.4 C137.1488,134.4 137.9904,134.0384 138.5952,133.3984 C139.2,132.7584 139.5136,131.8976 139.4624,131.0176 L139.2192,126.7456 C141.6832,126.0032 144.064,125.0176 146.3328,123.7984 L149.1808,126.992 C149.7664,127.648 150.5984,128.0352 151.4784,128.0608 C152.2976,128.1248 153.2128,127.7504 153.8304,127.1264 L165.5264,115.4336 C166.1472,114.8128 166.4864,113.9616 166.464,113.0816 C166.4384,112.1984 166.0512,111.3696 165.3952,110.784 L162.1856,107.92 C163.4016,105.6544 164.384,103.28 165.1264,100.8192 L169.4176,101.0624 C170.2976,101.104 171.1584,100.8 171.7984,100.1952 C172.4384,99.5904 172.8,98.7488 172.8,97.8688 L172.8,81.3344 C172.8,80.4544 172.4384,79.6128 171.7984,79.008 C171.1616,78.4032 170.3008,78.0832 169.4176,78.1376 L165.12,78.384 C164.3776,75.9264 163.3952,73.552 162.1792,71.2896 L165.3952,68.4192 C166.0512,67.8336 166.4384,67.0048 166.464,66.1216 C166.4864,65.2416 166.1472,64.3904 165.5264,63.7696 L153.8304,52.0768 C153.2096,51.4528 152.3744,51.104 151.4784,51.1424 C150.5984,51.1648 149.7664,51.552 149.1808,52.2112 L146.304,55.4368 C144.0416,54.224 141.6704,53.2384 139.2192,52.4992 L139.4624,48.1824 C139.5136,47.3024 139.2,46.4416 138.5952,45.8048 C137.9904,45.1616 137.1488,44.8 136.2688,44.8 L119.7312,44.8 C118.8512,44.8 118.0096,45.1616 117.4048,45.8048 C116.8,46.4416 116.4864,47.3024 116.5376,48.1824 L116.7808,52.4928 C114.3264,53.232 111.952,54.2176 109.6896,55.4272 L106.8192,52.208 C106.2304,51.552 105.4016,51.1648 104.5216,51.1424 C103.648,51.1136 102.7904,51.4528 102.1696,52.0768 L90.4736,63.7696 C89.8528,64.3904 89.5136,65.2416 89.536,66.1216 C89.5616,67.0016 89.9488,67.8336 90.6048,68.4192 L93.8272,71.2928 C92.608,73.5584 91.6256,75.9296 90.8832,78.384 L86.5824,78.1376 C85.696,78.08 84.8384,78.4032 84.2016,79.008 C83.5616,79.6128 83.2,80.4544 83.2,81.3344 L83.2,97.8688 C83.2,98.7488 83.5616,99.5904 84.2016,100.1952 C84.8416,100.8 85.6992,101.1072 86.5824,101.0624 L86.5824,101.0624 Z M179.2,208 L198.4,208 L198.4,176 L179.2,176 L179.2,208 Z M118.4,208 L137.6,208 L137.6,176 L118.4,176 L118.4,208 Z M57.6,208 L76.8,208 L76.8,176 L57.6,176 L57.6,208 Z M201.6,169.6 L192,169.6 L192,153.6 C192,151.8336 190.5696,150.4 188.8,150.4 L131.2,150.4 L131.2,140.8 L124.8,140.8 L124.8,150.4 L67.2,150.4 C65.4304,150.4 64,151.8336 64,153.6 L64,169.6 L54.4,169.6 C52.6304,169.6 51.2,171.0336 51.2,172.8 L51.2,211.2 C51.2,212.9664 52.6304,214.4 54.4,214.4 L80,214.4 C81.7696,214.4 83.2,212.9664 83.2,211.2 L83.2,172.8 C83.2,171.0336 81.7696,169.6 80,169.6 L70.4,169.6 L70.4,156.8 L124.8,156.8 L124.8,169.6 L115.2,169.6 C113.4304,169.6 112,171.0336 112,172.8 L112,211.2 C112,212.9664 113.4304,214.4 115.2,214.4 L140.8,214.4 C142.5696,214.4 144,212.9664 144,211.2 L144,172.8 C144,171.0336 142.5696,169.6 140.8,169.6 L131.2,169.6 L131.2,156.8 L185.6,156.8 L185.6,169.6 L176,169.6 C174.2304,169.6 172.8,171.0336 172.8,172.8 L172.8,211.2 C172.8,212.9664 174.2304,214.4 176,214.4 L201.6,214.4 C203.3696,214.4 204.8,212.9664 204.8,211.2 L204.8,172.8 C204.8,171.0336 203.3696,169.6 201.6,169.6 L201.6,169.6 Z" fill="#FFFFFF"></path>
    </g>
</svg>

<svg preserveAspectRatio="xMidYMid" viewBox="0 0 256 256" xmlns="http://www.w3.org/2000/svg">
  <defs>
    <linearGradient id="aws-opsworks_svg__a" x1="0%" x2="100%" y1="100%" y2="0%">
      <stop offset="0%" stop-color="#B0084D"/>
      <stop offset="100%" stop-color="#FF4F8B"/>
    </linearGradient>
  </defs>
  <path fill="url(#aws-opsworks_svg__a)" d="M0 0h256v256H0z"/>
  <path fill="#FFF" d="M128 76.16c7.411 0 13.44 6.029 13.44 13.44s-6.029 13.44-13.44 13.44-13.44-6.029-13.44-13.44 6.029-13.44 13.44-13.44Zm0 33.28c10.94 0 19.84-8.9 19.84-19.84s-8.9-19.84-19.84-19.84-19.84 8.9-19.84 19.84 8.9 19.84 19.84 19.84ZM89.6 84.72l3.53.202c1.443.076 2.953-.96 3.302-2.487a32.081 32.081 0 0 1 4.182-10.08 3.201 3.201 0 0 0-.572-4.096l-2.644-2.361 6.903-6.9 2.355 2.64a3.202 3.202 0 0 0 4.093.576 32.147 32.147 0 0 1 10.083-4.172 3.199 3.199 0 0 0 2.486-3.303l-.198-3.539h9.76l-.198 3.546a3.201 3.201 0 0 0 2.486 3.302 32.045 32.045 0 0 1 10.074 4.176 3.207 3.207 0 0 0 4.096-.58l2.361-2.646 6.903 6.9-2.637 2.355a3.202 3.202 0 0 0-.573 4.096 32.073 32.073 0 0 1 4.18 10.083c.348 1.526 1.826 2.566 3.302 2.49l3.526-.202v9.76l-3.523-.202c-1.479-.076-2.954.964-3.303 2.493a32.056 32.056 0 0 1-4.176 10.09 3.201 3.201 0 0 0 .573 4.096l2.63 2.345-6.899 6.903-2.332-2.618a3.204 3.204 0 0 0-4.1-.576 32.085 32.085 0 0 1-10.102 4.186 3.202 3.202 0 0 0-2.486 3.305l.198 3.498h-9.76l.198-3.504a3.201 3.201 0 0 0-2.486-3.302 32.15 32.15 0 0 1-10.096-4.19 3.19 3.19 0 0 0-4.096.577l-2.342 2.624-6.9-6.903 2.624-2.339a3.206 3.206 0 0 0 .576-4.096 31.87 31.87 0 0 1-4.179-10.096c-.345-1.53-1.82-2.576-3.302-2.493l-3.517.202v-9.76Zm-3.018 16.342 4.285-.243a38.502 38.502 0 0 0 2.941 7.107l-3.203 2.855a3.214 3.214 0 0 0-1.069 2.3c-.022.88.317 1.732.938 2.353l11.696 11.692c.62.624 1.468.99 2.352.935a3.195 3.195 0 0 0 2.297-1.069l2.855-3.2a38.722 38.722 0 0 0 7.107 2.95l-.243 4.276a3.195 3.195 0 0 0 3.193 3.382h16.538a3.2 3.2 0 0 0 3.193-3.382l-.243-4.272a38.456 38.456 0 0 0 7.114-2.948l2.848 3.194a3.207 3.207 0 0 0 2.297 1.069c.82.064 1.735-.31 2.352-.935l11.696-11.692c.621-.621.96-1.472.938-2.352a3.201 3.201 0 0 0-1.069-2.298l-3.21-2.864a38.534 38.534 0 0 0 2.941-7.1l4.292.242c.88.042 1.74-.262 2.38-.867a3.2 3.2 0 0 0 1.002-2.326V81.334a3.2 3.2 0 0 0-1.002-2.326 3.176 3.176 0 0 0-2.38-.87l-4.298.246a38.475 38.475 0 0 0-2.94-7.094l3.215-2.87a3.201 3.201 0 0 0 1.069-2.298 3.212 3.212 0 0 0-.938-2.352L153.83 52.077a3.111 3.111 0 0 0-2.352-.935 3.18 3.18 0 0 0-2.297 1.07l-2.877 3.225a38.558 38.558 0 0 0-7.085-2.938l.243-4.317a3.183 3.183 0 0 0-.867-2.377 3.19 3.19 0 0 0-2.326-1.005H119.73a3.19 3.19 0 0 0-2.326 1.005 3.183 3.183 0 0 0-.867 2.377l.243 4.31a38.736 38.736 0 0 0-7.091 2.935l-2.87-3.219a3.197 3.197 0 0 0-2.298-1.066 3.181 3.181 0 0 0-2.352.935L90.474 63.77a3.212 3.212 0 0 0-.938 2.352c.026.88.413 1.712 1.069 2.297l3.222 2.874a38.42 38.42 0 0 0-2.944 7.091l-4.3-.246a3.159 3.159 0 0 0-2.381.87 3.2 3.2 0 0 0-1.002 2.326V97.87a3.2 3.2 0 0 0 1.002 2.326c.64.605 1.497.912 2.38.867ZM179.2 208h19.2v-32h-19.2v32Zm-60.8 0h19.2v-32h-19.2v32Zm-60.8 0h19.2v-32H57.6v32Zm144-38.4H192v-16a3.2 3.2 0 0 0-3.2-3.2h-57.6v-9.6h-6.4v9.6H67.2a3.2 3.2 0 0 0-3.2 3.2v16h-9.6a3.2 3.2 0 0 0-3.2 3.2v38.4a3.2 3.2 0 0 0 3.2 3.2H80a3.2 3.2 0 0 0 3.2-3.2v-38.4a3.2 3.2 0 0 0-3.2-3.2h-9.6v-12.8h54.4v12.8h-9.6a3.2 3.2 0 0 0-3.2 3.2v38.4a3.2 3.2 0 0 0 3.2 3.2h25.6a3.2 3.2 0 0 0 3.2-3.2v-38.4a3.2 3.2 0 0 0-3.2-3.2h-9.6v-12.8h54.4v12.8H176a3.2 3.2 0 0 0-3.2 3.2v38.4a3.2 3.2 0 0 0 3.2 3.2h25.6a3.2 3.2 0 0 0 3.2-3.2v-38.4a3.2 3.2 0 0 0-3.2-3.2Z"/>
</svg>
